svgs/light/box-open.svg

<svg xmlns="http://www.w3.org/2000/svg" viewBox="0 0 640 512"><!--! Font Awesome Pro 6.3.0 by @fontawesome - https://fontawesome.com License - https://fontawesome.com/license (Commercial License) Copyright 2023 Fonticons, Inc. --><path d="M320 77.23L559.6 49.48C573.7 47.85 587.2 55.65 592.7 68.66L624.7 143.3C634.6 166.2 621.3 192.4 596.1 198L437.8 234.8C418.8 239.1 399.2 231.7 387.9 215.9L320 120.9L252.1 215.9C240.8 231.7 221.2 239.1 202.3 234.8L43.04 198C18.75 192.4 5.449 166.2 15.27 143.3L47.26 68.66C52.84 55.65 66.3 47.85 80.36 49.48L320 77.23zM44.68 155.9C42.72 160.5 45.38 165.7 50.24 166.9L209.4 203.6C215.7 205.1 222.3 202.6 226.1 197.3L291.2 106.1L76.68 81.27L44.68 155.9zM413.9 197.3C417.7 202.6 424.3 205.1 430.6 203.6L589.8 166.9C594.6 165.7 597.3 160.5 595.3 155.9L563.3 81.27L348.8 106.1L413.9 197.3zM544 236.7L576 227.6V378.5C576 400.5 561 419.7 539.6 425.1L331.6 477.1C324 479 316 479 308.4 477.1L100.4 425.1C78.99 419.7 64 400.5 64 378.5V227.6L96 236.7V378.5C96 385.9 100.1 392.3 108.1 394L304 443V207.1C304 199.2 311.2 191.1 320 191.1C328.8 191.1 336 199.2 336 207.1V443L531.9 394C539 392.3 544 385.9 544 378.5L544 236.7z"/></svg>

<svg xmlns="http://www.w3.org/2000/svg" viewBox="0 0 640 512"><!--! Font Awesome Pro 6.4.0 by @fontawesome - https://fontawesome.com License - https://fontawesome.com/license (Commercial License) Copyright 2023 Fonticons, Inc. --><path d="M80.4 49.5L320 77.2 559.6 49.5c14.1-1.6 27.5 6.2 33.1 19.2l32 74.7c9.8 22.9-3.5 49.1-27.8 54.7L437.8 234.8c-18.9 4.4-38.6-3.1-49.9-18.9L320 120.9l-67.9 95.1c-11.3 15.8-30.9 23.2-49.9 18.9L43 198c-24.3-5.6-37.6-31.8-27.8-54.7l32-74.7c5.6-13 19-20.8 33.1-19.2zM76.7 81.3l-32 74.7c-2 4.6 .7 9.8 5.6 10.9l159.2 36.7c6.3 1.5 12.9-1 16.6-6.3l65.1-91.2L76.7 81.3zM544 236.7l32-9.1v151c0 22-15 41.2-36.4 46.6l-208 52c-7.6 1.9-15.6 1.9-23.3 0l-208-52C79 419.7 64 400.5 64 378.5v-151l32 9.1V378.5c0 7.3 5 13.7 12.1 15.5L304 443V208c0-8.8 7.2-16 16-16s16 7.2 16 16V443l195.9-49c7.1-1.8 12.1-8.2 12.1-15.5V236.7zM348.8 106.1l65.1 91.2c3.8 5.3 10.3 7.7 16.6 6.3l159.2-36.7c4.9-1.1 7.5-6.4 5.6-10.9l-32-74.7L348.8 106.1z"/></svg>
